**kern	**silbe	**kern	**silbe
*ICvox	*	*ICvox	*
=1	=1	=1	=1
*D:	*	*D:	*
*M4/4	*	*M4/4	*
*clefC3	*	*clefC3	*
1r	.	1r	.
=2	=2	=2	=2
1r	.	1r	.
=3	=3	=3	=3
1r	.	1r	.
=4	=4	=4	=4
1r	.	1r	.
=5	=5	=5	=5
1r	.	1r	.
=6	=6	=6	=6
1r	.	1r	.
=7	=7	=7	=7
1r	.	1r	.
=8	=8	=8	=8
1r	.	1r	.
=9	=9	=9	=9
1r	.	1r	.
=10	=10	=10	=10
8.d	Day	1r	.
[16d	turned	.	.
8d]	_	.	.
[8d	black,	.	.
8d]	_	.	.
8r	_	.	.
4r	.	.	.
=11	=11	=11	=11
8.d	sky	1r	.
[16d	ripped	.	.
16d]	_	.	.
16e	a-	.	.
12d	-part,	.	.
12c#	_	.	.
12B	_	.	.
8r	_	.	.
4r	.	.	.
=12	=12	=12	=12
8r	.	1r	.
4c#	rained	.	.
16c#	for	.	.
16c#	a	.	.
4.c#	year,	.	.
16A	'till	.	.
16A	it	.	.
=13	=13	=13	=13
8Aq	_	.	.
[4d	dam	1r	.
12d]	_	.	.
12c#	pened	.	.
12A	my	.	.
4.G	heart	.	.
8r	.	.	.
=14	=14	=14	=14
8r	.	1r	.
4d	Cracks	.	.
16d	and	.	.
16d	l-	.	.
4.d	-leaks,	.	.
16A	the	.	.
[16d	floor	.	.
=15	=15	=15	=15
8d]	_	1r	.
4d	boards	.	.
8e	caught	.	.
12d	rot,	.	.
12c#	_	.	.
12B	_	.	.
4r	_	.	.
=16	=16	=16	=16
8r	.	1r	.
[8c#	'bout	.	.
16c#]	_	.	.
16c#	to	.	.
8c#	go	.	.
4.c#	down,	.	.
16A	I	.	.
16A	had	.	.
=17	=17	=17	=17
4.d	al-	1r	.
[8B	-most	.	.
8B]	_	.	.
8A	for-	.	.
4G	-got.	.	.
=18	=18	=18	=18
1r	.	1r	.
=19	=19	=19	=19
8A	All	1r	.
8A	I	.	.
8B	got	.	.
8A	to	.	.
8d	do	.	.
8B	_	.	.
8B	is	.	.
8A	to,	.	.
=20	=20	=20	=20
4r	_	1r	.
8r	.	.	.
8A	to	.	.
8E#q	_	.	.
4F#	love	.	.
4E	you,	.	.
=21	=21	=21	=21
8A	all	1r	.
8A	I	.	.
8B	got	.	.
8A	to	.	.
8d	be	.	.
8B	_	.	.
8B	is	.	.
8d	a'	.	.
=22	=22	=22	=22
4r	.	1r	.
16r	.	.	.
8eq	_	.	.
8.f	be	.	.
8e	hap	.	.
8d	_	.	.
4d	py,	.	.
=23	=23	=23	=23
8A	all	1r	.
8A	it's	.	.
8B	got	.	.
8A	to	.	.
8d	take	.	.
8B	_	.	.
8B	is	.	.
8A	some	.	.
=24	=24	=24	=24
8r	.	1r	.
4F#	warmth	.	.
16E	to	.	.
[16F#	make	.	.
16F#]	_	.	.
8.A	it	.	.
8B	blow	.	.
8d	a-	.	.
=25	=25	=25	=25
4f	-way,	1r	.
8f	blow	.	.
8c	a-	.	.
16e	-way	.	.
16d	_	.	.
8c	_	.	.
16e	blow	.	.
16d	_	.	.
8c	a-	.	.
=26	=26	=26	=26
4d	-way!	1r	.
4r	_	.	.
2r	.	.	.
=27	=27	=27	=27
8A	All	8d	All
8A	I	8d	I
8B	got	8e	got
8A	to	8d	to
8d	do	8f#	do
8B	_	8e	_
8B	is	8e	is
8A	to,	8d	to
=28	=28	=28	=28
4r	_	1r	.
8r	.	.	.
8A	to	.	.
8E#q	_	.	.
4F#	love	.	.
4E	you,	.	.
=29	=29	=29	=29
8A	all	8d	all
8A	I	8d	I
8B	got	8e	got
8A	to	8d	to
8d	be	8f#	be
8B	_	8e	_
8B	is	8e	is
8d	a'	8f#	a'
=30	=30	=30	=30
4r	.	1r	.
16r	.	.	.
8eq	_	.	.
8.f	be	.	.
8e	hap	.	.
8d	_	.	.
4d	py,	.	.
=31	=31	=31	=31
8A	all	8c#	all
8A	it's	8c#	it's
8B	got	8e	got
8A	to	8c#	to
8d	take	8f#	take
8B	_	8e	_
8B	is	8e	is
8A	some	8d	some
=32	=32	=32	=32
8r	.	1r	.
4F#	warmth	.	.
16E	to	.	.
[16F#	make	.	.
16F#]	_	.	.
8.A	it	.	.
8B	blow	.	.
8d	a-	.	.
=33	=33	=33	=33
4f	-way,	4a	way,
8f	blow	8a	blow
8c	a-	8f	a-
16e	-way	16g	-way
16d	_	16f	_
8c	_	8e	_
16e	blow	8g	blow
16d	_	.	.
8c	a-	8e	a-
=34	=34	=34	=34
8d	-way!	4g	-way!
8B	_	.	.
4r	_	4r	_
2r	.	2r	.
=35	=35	=35	=35
1r	.	1r	.
=36	=36	=36	=36
1r	.	1r	.
=37	=37	=37	=37
1r	.	1r	.
=38	=38	=38	=38
8d	Sky	1r	.
4d	cleared	.	.
[8d	up,	.	.
8d]	_	.	.
4r	_	.	.
[8d	day	.	.
=39	=39	=39	=39
8d]	_	1r	.
4d	turned	.	.
16e	to	.	.
12d	bright,	.	.
12c#	_	.	.
12B	_	.	.
16r	_	.	.
4r	.	.	.
=40	=40	=40	=40
8r	.	1r	.
[8c#	clo	.	.
16c#]	_	.	.
16c#	sing	.	.
8c#	both	.	.
4.c#	eyes	.	.
16A	now	.	.
16A	the	.	.
=41	=41	=41	=41
8Aq	_	.	.
[4d	head	1r	.
12d]	_	.	.
12c#	filled	.	.
12A	with	.	.
4.G	light,	.	.
8r	_	.	.
=42	=42	=42	=42
8r	.	8r	.
8c#q	_	8eq	_
[8d	hard	[8f#	hard
16d]	_	16f#]	_
16d	to	16f#	to
8d	re-	8f#	re-
8d	-mem-	8f#	-mem-
8d	-ber	8f#	-ber
8B	_	8e	_
8B	the	8e	the
=43	=43	=43	=43
8d	state	8f#	state
4d	I	4f#	I
8e	was	8a	was
12d	in,	12f#	in,
12c#	_	12e	_
12B	_	12d	_
4r	_	4r	_
=44	=44	=44	=44
8r	.	8r	.
[8c#	in	[8e	in
16c#]	_	16e]	_
16c#	stant	16e	stant
8c#	am-	8e	am-
6c#	-nes-	6e	-nes-
6c#	-ia,	6e	-ia,
12A	_	12e	_
12A	y-	12e	y-
=45	=45	=45	=45
8Aq	_	8f#q	_
[4d	-yang	[4g	-yang
12d]	_	12g]	_
12c#	to	12e	to
12A	the	12d	the
4.G	yin	4.c#	yin
8r	.	8r	.
=46	=46	=46	=46
1r	.	1r	.
=47	=47	=47	=47
8A	All	1r	.
8A	I	.	.
8B	got	.	.
8A	to	.	.
8d	do	.	.
8B	_	.	.
8B	is	.	.
8A	to,	.	.
=48	=48	=48	=48
4r	_	1r	.
8r	.	.	.
8A	to	.	.
8E#q	_	.	.
4F#	love	.	.
4E	you,	.	.
=49	=49	=49	=49
8A	all	1r	.
8A	I	.	.
8B	got	.	.
8A	to	.	.
8d	be	.	.
8B	_	.	.
8B	is	.	.
8d	a'	.	.
=50	=50	=50	=50
4r	.	1r	.
16r	.	.	.
8eq	_	.	.
8.f	be	.	.
8e	hap	.	.
8d	_	.	.
4d	py,	.	.
=51	=51	=51	=51
8A	all	1r	.
8A	it's	.	.
8B	got	.	.
8A	to	.	.
8d	take	.	.
8B	_	.	.
8B	is	.	.
8A	some	.	.
=52	=52	=52	=52
8r	.	1r	.
4F#	warmth	.	.
16E	to	.	.
[16F#	make	.	.
16F#]	_	.	.
8.A	it	.	.
8B	blow	.	.
8d	a-	.	.
=53	=53	=53	=53
4f	-way,	1r	.
8f	blow	.	.
8c	a-	.	.
16e	-way	.	.
16d	_	.	.
8c	_	.	.
16e	blow	.	.
16d	_	.	.
8c	a-	.	.
=54	=54	=54	=54
8d	-way!	1r	.
8r	.	.	.
4r	_	.	.
4r	.	.	.
8r	.	.	.
[8A	_	.	.
=55	=55	=55	=55
8A]	All	8d	All
8A	I	8d	I
8B	got	8e	got
8A	to	8d	to
8d	do	8f#	do
8B	_	8e	_
8B	is	8e	is
8A	to,	8d	to
=56	=56	=56	=56
4r	_	1r	.
8r	.	.	.
8A	to	.	.
8E#q	_	.	.
4F#	love	.	.
4E	you,	.	.
=57	=57	=57	=57
8A	all	8d	all
8A	I	8d	I
8B	got	8e	got
8A	to	8d	to
8d	be	8f#	be
8B	_	8e	_
8B	is	8e	is
8d	a'	8f#	a'
=58	=58	=58	=58
4r	.	1r	.
16r	.	.	.
8eq	_	.	.
8.f	be	.	.
8e	hap	.	.
8d	_	.	.
4d	py,	.	.
=59	=59	=59	=59
8A	all	8c#	all
8A	it's	8c#	it's
8B	got	8e	got
8A	to	8c#	to
8d	take	8f#	take
8B	_	8e	_
8B	is	8e	is
8A	some	8d	some
=60	=60	=60	=60
8r	.	1r	.
4F#	warmth	.	.
16E	to	.	.
[16F#	make	.	.
16F#]	_	.	.
8.A	it	.	.
8B	blow	.	.
8d	a-	.	.
=61	=61	=61	=61
4f	-way,	4a	way,
8f	blow	8a	blow
8c	a-	8f	a-
16e	-way	16g	-way
16d	_	16f	_
8c	_	8e	_
16e	blow	8g	blow
16d	_	.	.
8c	a-	8e	a-
=62	=62	=62	=62
4d	-way!	4g	-way!
4r	_	4r	_
2r	.	2r	.
=63	=63	=63	=63
1r	.	1r	.
=64	=64	=64	=64
1r	.	1r	.
=65	=65	=65	=65
1r	.	1r	.
=66	=66	=66	=66
8d	Wind	8f#	Wind
4d	blew	4f#	blew
[8d	in,	[8f#	in,
8d]	_	8f#]	_
4r	_	4r	_
[8d	cloud	[8f#	cloud
=67	=67	=67	=67
8d]	_	8f#]	_
4d	was	4f#	was
16e	dis-	16a	dis-
12d	-persed,	12f#	-persed,
12c#	_	12e	_
12B	_	12d	_
16r	_	16r	_
4r	.	4r	.
=68	=68	=68	=68
8r	.	8r	.
[8c#	rain	[8e	rain
16c#]	_	16e]	_
16c#	bows	16e	bows
8c#	ap-	8e	ap-
4c#	-pear-	4e	-pear-
8c#	-ing,	8c#	-ing,
8A	the	8c#	the
=69	=69	=69	=69
8Aq	_	8f#q	_
[4d	pres	[4g	pres
12d]	_	12g]	_
12B	sures	12e	sures
12A	were	12d	were
4.G	burst	4.c#	burst
8r	.	8r	.
=70	=70	=70	=70
8r	.	8r	.
8c#q	_	8c#q	_
[8d	Bree	[8f#	Bree
16d]	_	16f#]	_
16d	zes	16f#	zes
8d	a-	8f#	a-
8d	-sin-	8f#	-sin-
4d	-ging,	4f#	-ging,
16d	now	16f#	now
[16d	I'm	[16f#	I'm
=71	=71	=71	=71
8d]	_	8f#]	_
8d	fee-	8f#	fee-
8e	-ling	8a	-ling
12d	good,	12f#	good,
12c#	_	12e	_
12B	_	12d	_
8r	.	8r	.
4r	_	4r	_
=72	=72	=72	=72
8r	.	8r	.
[8c#	mo	[8e	mo
16c#]	_	16e]	_
16c#	ment	16e	ment
8c#	had	8e	had
4c#	passed	4e	passed
12c#	_	12e	_
12A	like	12c#	like
12A	I	12c#	I
=73	=73	=73	=73
8Aq	_	8f#q	_
[4d	knew	[4g	knew
12d]	_	12g]	_
12c#	that	12e	that
12A	it	12d	it
4.G	should	4.c#	should
8r	.	8r	.
=74	=74	=74	=74
1r	.	1r	.
=75	=75	=75	=75
8A	All	8d	All
8A	I	8d	I
8B	got	8e	got
8A	to	8d	to
8d	do	8f#	do
8B	_	8e	_
8B	is	8e	is
8A	to,	8d	to
=76	=76	=76	=76
4r	_	1r	.
8r	.	.	.
8A	to	.	.
8E#q	_	.	.
4F#	love	.	.
4E	you,	.	.
=77	=77	=77	=77
8A	all	8d	all
8A	I	8d	I
8B	got	8e	got
8A	to	8d	to
8d	be	8f#	be
8B	_	8e	_
8B	is	8e	is
8d	a'	8f#	a'
=78	=78	=78	=78
4r	.	1r	.
16r	.	.	.
8eq	_	.	.
8.f	be	.	.
8e	hap	.	.
8d	_	.	.
4d	py,	.	.
=79	=79	=79	=79
8A	all	8c#	all
8A	it's	8c#	it's
8c#	got	8e	got
8A	to	8c#	to
8d	take	8f#	take
8B	_	8e	_
8B	is	8e	is
8A	some	8d	some
=80	=80	=80	=80
8r	.	1r	.
4F#	warmth	.	.
16E	to	.	.
[16F#	make	.	.
16F#]	_	.	.
8.A	it	.	.
8B	blow	.	.
8d	a-	.	.
=81	=81	=81	=81
4f	-way,	4a	way,
8f	blow	8a	blow
8c	a-	8f	a-
16e	-way	16g	-way
16d	_	16f	_
8c	_	8e	_
16e	blow	8g	blow
16d	_	.	.
8c	a-	8e	a-
=82	=82	=82	=82
4d	-way!	4g	-way!
4r	_	4r	_
2r	.	8f	(Vocalizing)
.	.	8e	_
.	.	8c#	_
.	.	8d	_
=83	=83	=83	=83
8A	All	8d	All
8A	I	8d	I
8B	got	8e	got
8A	to	8d	to
8d	do	8f#	do
8B	_	8e	_
8B	is	8e	is
8A	to,	8d	to
=84	=84	=84	=84
4r	_	1r	.
8r	.	.	.
8A	to	.	.
8E#q	_	.	.
4F#	love	.	.
4E	you,	.	.
=85	=85	=85	=85
8A	all	8d	all
8A	I	8d	I
8B	got	8e	got
8A	to	8d	to
8d	be	8f#	be
8B	_	8e	_
8B	is	8e	is
8d	a'	8f#	a'
=86	=86	=86	=86
4r	.	1r	.
16r	.	.	.
8eq	_	.	.
8.f	be	.	.
8e	hap	.	.
8d	_	.	.
4d	py,	.	.
=87	=87	=87	=87
8A	all	8c#	all
8A	it's	8c#	it's
8c#	got	8e	got
8A	to	8c#	to
8d	take	8f#	take
8B	_	8e	_
8B	is	8e	is
8A	some	8d	some
=88	=88	=88	=88
8r	.	1r	.
4F#	warmth	.	.
16E	to	.	.
[16F#	make	.	.
16F#]	_	.	.
8.A	it	.	.
8B	blow	.	.
8d	a-	.	.
=89	=89	=89	=89
4f	-way,	4a	way,
8f	blow	8a	blow
8c	a-	8a	a-
.	.	16f#Q	_
.	.	16aQ	_
16e	-way	16g	-way
16d	_	16f	_
8c	_	8e	_
16e	blow	8g	blow
16d	_	.	.
8c	a-	8e	a-
=90	=90	=90	=90
4d	-way!	4g	-way!
4r	_	4r	_
2r	.	2r	.
=91	=91	=91	=91
1r	.	1r	.
=92	=92	=92	=92
1r	.	1r	.
=93	=93	=93	=93
1r	.	1r	.
=94	=94	=94	=94
1r	.	1r	.
=95	=95	=95	=95
1r	.	1r	.
=96	=96	=96	=96
1r	.	1r	.
=97	=97	=97	=97
1r	.	1r	.
=98	=98	=98	=98
8A	all	8c#	all
8A	it's	8c#	it's
8c#	got	8e	got
8A	to	8c#	to
8d	take	8f#	take
8B	_	8e	_
8B	is	8e	is
8A	some	8d	some
=99	=99	=99	=99
8r	.	1r	.
4F#	warmth	.	.
16E	to	.	.
[16F#	make	.	.
16F#]	_	.	.
8.A	it	.	.
8B	blow	.	.
8d	a-	.	.
=100	=100	=100	=100
4f	-way,	4a	way,
8f	blow	8a	blow
8c	a-	8f	a-
16e	-way	16g	-way
16d	_	16f	_
8c	_	8e	_
16e	blow	8g	blow
16d	_	.	.
8c	a-	8e	a-
=101	=101	=101	=101
4d	-way!	4g	-way!
4r	_	8r	_
.	.	16f	(Vocalizing)
.	.	[16e	_
8r	.	4e]	_
4.d	(Ah)	.	.
.	.	4d	_
=102	=102	=102	=102
8A	All	8d	All
8A	I	8d	I
8B	got	8e	got
8A	to	8d	to
8d	do	8f#	do
8B	_	8e	_
8B	is	8e	is
8A	to,	8d	to
=103	=103	=103	=103
4r	_	1r	.
8r	.	.	.
8A	to	.	.
8E#q	_	.	.
4F#	love	.	.
4E	you,	.	.
=104	=104	=104	=104
8A	all	8d	all
8A	I	8d	I
8B	got	8e	got
8A	to	8d	to
8d	be	8f#	be
8B	_	8e	_
8B	is	8e	is
8d	a'	8f#	a'
=105	=105	=105	=105
4r	.	1r	.
16r	.	.	.
8eq	_	.	.
8.f	be	.	.
8e	hap	.	.
8d	_	.	.
4d	py,	.	.
=106	=106	=106	=106
8A	all	8c#	all
8A	it's	8c#	it's
8c#	got	8e	got
8A	to	8c#	to
8d	take	8f#	take
8B	_	8e	_
8B	is	8e	is
8A	some	8d	some
=107	=107	=107	=107
8r	.	1r	.
4F#	warmth	.	.
16E	to	.	.
[16F#	make	.	.
16F#]	_	.	.
8.A	it	.	.
8B	blow	.	.
8d	a-	.	.
=108	=108	=108	=108
4f	-way,	4a	way,
8f	blow	8a	blow
8c	a-	8a	a-
.	.	16f#Q	_
.	.	16aQ	_
16e	-way	16g	-way
16d	_	16f	_
8c	_	8e	_
16e	blow	8g	blow
16d	_	.	.
8c	a-	8e	a-
=109	=109	=109	=109
4d	-way!	4g	-way!
4r	_	4r	_
4r	.	2r	.
4d	Ah	.	.
=110	=110	=110	=110
4f	_	1r	.
4e	_	.	.
4.d	_	.	.
8r	...	.	.
=111	=111	=111	=111
1r	.	1r	.
=112	=112	=112	=112
1r	.	1r	.
=113	=113	=113	=113
1r	.	1r	.
*-	*-	*-	*-
!!!ENC: Nathaniel Condit-Schultz